SVG_Azure_Grouped/AI/Cognitive Services Enterprise Bot.svg

<?xml version="1.0" encoding="UTF-8" standalone="no"?>
<!-- Generated by Microsoft Visio, SVG Export Cognitive Services Enterprise Bot.svg Page-1 -->

<svg
   xmlns:dc="http://purl.org/dc/elements/1.1/"
   xmlns:cc="http://creativecommons.org/ns#"
   xmlns:rdf="http://www.w3.org/1999/02/22-rdf-syntax-ns#"
   xmlns:svg="http://www.w3.org/2000/svg"
   xmlns="http://www.w3.org/2000/svg"
   xmlns:sodipodi="http://sodipodi.sourceforge.net/DTD/sodipodi-0.dtd"
   xmlns:inkscape="http://www.inkscape.org/namespaces/inkscape"
   width="0.55124861in"
   height="0.78737026in"
   viewBox="0 0 39.689879 56.6908"
   xml:space="preserve"
   class="st3"
   version="1.1"
   id="svg66"
   sodipodi:docname="Cognitive Services Enterprise Bot.svg"
   style="font-size:12px;overflow:visible;color-interpolation-filters:sRGB;fill:none;fill-rule:evenodd;stroke-linecap:square;stroke-miterlimit:3"
   inkscape:version="0.92.5 (2060ec1f9f, 2020-04-08)"><metadata
   id="metadata72"><rdf:RDF><cc:Work
       rdf:about=""><dc:format>image/svg+xml</dc:format><dc:type
         rdf:resource="http://purl.org/dc/dcmitype/StillImage" /></cc:Work></rdf:RDF></metadata><defs
   id="defs70" /><sodipodi:namedview
   pagecolor="#ffffff"
   bordercolor="#666666"
   borderopacity="1"
   objecttolerance="10"
   gridtolerance="10"
   guidetolerance="10"
   inkscape:pageopacity="0"
   inkscape:pageshadow="2"
   inkscape:window-width="640"
   inkscape:window-height="480"
   id="namedview68"
   showgrid="false"
   inkscape:zoom="1.8365233"
   inkscape:cx="26.4566"
   inkscape:cy="18.900351"
   inkscape:window-x="0"
   inkscape:window-y="0"
   inkscape:window-maximized="0"
   inkscape:current-layer="svg66" />
	<style
   type="text/css"
   id="style2">
	<![CDATA[
		.st1 {fill:#0078d4;stroke:none;stroke-linecap:butt;stroke-width:0.75}
		.st2 {fill:#50e6ff;stroke:none;stroke-linecap:butt;stroke-width:0.75}
		.st3 {fill:none;fill-rule:evenodd;font-size:12px;overflow:visible;stroke-linecap:square;stroke-miterlimit:3}
	]]>
	</style>

	<g
   id="g64"
   transform="translate(-3.968572,-5.6735)">
		<title
   id="title4">Page-1</title>
		<g
   id="group18582-1"
   transform="translate(3.9685,-34.0157)">
			<title
   id="title6">Cognitive Services Enterprise Bot.18582</title>
			<g
   id="shape18583-2">
				<title
   id="title8">Sheet.18583</title>
				<path
   d="m 39.69,55.14 h -3.8 V 65.87 H 3.86 V 55.14 H 0 v 41.24 h 39.69 z"
   class="st1"
   id="path10"
   inkscape:connector-curvature="0"
   style="fill:#0078d4;stroke:none;stroke-width:0.75;stroke-linecap:butt" />
			</g>
			<g
   id="shape18584-4"
   transform="translate(3.66128,-4.45445)">
				<title
   id="title13">Sheet.18584</title>
				<path
   d="M 32.36,74.85 H 0 V 96.38 H 32.3 V 74.85 Z"
   class="st2"
   id="path15"
   inkscape:connector-curvature="0"
   style="fill:#50e6ff;stroke:none;stroke-width:0.75;stroke-linecap:butt" />
			</g>
			<g
   id="shape18585-6"
   transform="translate(5.03416,-12.7559)">
				<title
   id="title18">Sheet.18585</title>
				<path
   d="M 1.5,96.38 0,95.37 0.13,95.16 c 1.24,-1.89 3.4,-3.03 5.69,-3.03 2.35,0 4.51,1.14 5.69,3.03 l 0.13,0.21 -1.57,0.94 -0.13,-0.2 C 9.09,94.76 7.52,93.88 5.75,93.88 c -1.7,0 -3.27,0.88 -4.18,2.23 z"
   class="st1"
   id="path20"
   inkscape:connector-curvature="0"
   style="fill:#0078d4;stroke:none;stroke-width:0.75;stroke-linecap:butt" />
			</g>
			<g
   id="shape18586-8"
   transform="translate(23.0788,-12.7559)">
				<title
   id="title23">Sheet.18586</title>
				<path
   d="m 11.51,95.16 c -1.18,-1.89 -3.34,-3.03 -5.69,-3.03 -2.35,0 -4.45,1.14 -5.69,3.03 L 0,95.37 l 1.5,1.01 0.13,-0.2 c 0.85,-1.35 2.49,-2.23 4.19,-2.23 1.76,0 3.33,0.88 4.18,2.23 l 0.13,0.2 1.57,-0.95 z"
   class="st1"
   id="path25"
   inkscape:connector-curvature="0"
   style="fill:#0078d4;stroke:none;stroke-width:0.75;stroke-linecap:butt" />
			</g>
			<g
   id="shape18587-10"
   transform="translate(26.1515,-33.0709)">
				<title
   id="title28">Sheet.18587</title>
				<path
   d="m 4.9,81.19 v 9.25 c -0.19,0 -0.45,0.07 -0.58,0.27 -0.14,0.13 -0.27,0.4 -0.27,0.61 0,0.2 0.07,0.47 0.27,0.6 0.13,0.14 0.39,0.27 0.58,0.27 v 4.19 H 0 V 81.19 Z"
   class="st2"
   id="path30"
   inkscape:connector-curvature="0"
   style="fill:#50e6ff;stroke:none;stroke-width:0.75;stroke-linecap:butt" />
			</g>
			<g
   id="shape18588-12"
   transform="translate(19.6137,-48.2565)">
				<title
   id="title33">Sheet.18588</title>
				<path
   d="M 3.27,94.69 H 0 v 1.69 h 3.27 z"
   class="st1"
   id="path35"
   inkscape:connector-curvature="0"
   style="fill:#0078d4;stroke:none;stroke-width:0.75;stroke-linecap:butt" />
			</g>
			<g
   id="shape18589-14"
   transform="translate(9.80687,-43.1946)">
				<title
   id="title38">Sheet.18589</title>
				<path
   d="M 4.9,94.69 H 0 v 1.69 h 4.9 z"
   class="st1"
   id="path40"
   inkscape:connector-curvature="0"
   style="fill:#0078d4;stroke:none;stroke-width:0.75;stroke-linecap:butt" />
			</g>
			<g
   id="shape18590-16"
   transform="translate(9.80687,-39.82)">
				<title
   id="title43">Sheet.18590</title>
				<path
   d="M 4.9,94.69 H 0 v 1.69 h 4.9 z"
   class="st1"
   id="path45"
   inkscape:connector-curvature="0"
   style="fill:#0078d4;stroke:none;stroke-width:0.75;stroke-linecap:butt" />
			</g>
			<g
   id="shape18591-18"
   transform="translate(9.80687,-36.4455)">
				<title
   id="title48">Sheet.18591</title>
				<path
   d="M 4.9,94.69 H 0 v 1.69 h 4.9 z"
   class="st1"
   id="path50"
   inkscape:connector-curvature="0"
   style="fill:#0078d4;stroke:none;stroke-width:0.75;stroke-linecap:butt" />
			</g>
			<g
   id="shape18592-20"
   transform="translate(6.53787,-33.0708)">
				<title
   id="title53">Sheet.18592</title>
				<path
   d="m 4.9,72.76 v 8.43 H 0 V 96.38 H 19.61 V 72.76 Z M 9.81,94.69 H 1.63 V 82.88 H 9.81 Z M 11.44,79.51 H 8.17 v -3.38 h 3.27 z m 4.9,15.18 h -3.26 v -3.37 h 3.26 z m 0,-5.06 h -3.26 v -3.38 h 3.26 z m 0,-5.06 h -3.26 v -3.38 h 3.26 z m 0,-5.06 h -3.26 v -3.38 h 3.26 z"
   class="st1"
   id="path55"
   inkscape:connector-curvature="0"
   style="fill:#0078d4;stroke:none;stroke-width:0.75;stroke-linecap:butt" />
			</g>
			<g
   id="shape18593-22"
   transform="translate(28.5053,-33.0034)">
				<title
   id="title58">Sheet.18593</title>
				<path
   d="M 4.97,91.25 C 4.97,90.78 4.84,90.3 4.64,89.9 4.45,89.49 4.05,89.16 3.66,88.95 3.27,88.75 2.81,88.62 2.35,88.68 c -0.45,0 -0.85,0.21 -1.24,0.48 -0.39,0.27 -0.65,0.6 -0.85,1.08 -0.19,0.4 -0.26,0.87 -0.19,1.35 0.06,0.47 0.26,0.87 0.52,1.28 0.26,0.34 0.65,0.61 1.11,0.81 v 2.7 h 1.63 v -2.7 c 0.46,-0.2 0.92,-0.47 1.18,-0.95 0.33,-0.47 0.46,-1.01 0.46,-1.48 z M 2.55,92.06 C 2.42,92.06 2.22,91.99 2.09,91.92 1.96,91.86 1.83,91.72 1.77,91.52 1.7,91.38 1.7,91.18 1.7,91.05 c 0,-0.14 0.13,-0.34 0.2,-0.41 0.13,-0.13 0.26,-0.2 0.39,-0.2 0.13,0 0.33,0 0.46,0.07 0.13,0.06 0.26,0.13 0.39,0.33 0.06,0.14 0.13,0.27 0.13,0.48 0,0.2 -0.07,0.47 -0.26,0.6 -0.07,0.07 -0.26,0.14 -0.46,0.14 z"
   class="st1"
   id="path60"
   inkscape:connector-curvature="0"
   style="fill:#0078d4;stroke:none;stroke-width:0.75;stroke-linecap:butt" />
			</g>
		</g>
	</g>
</svg>

<?xml version="1.0" encoding="UTF-8" standalone="no"?>
<!DOCTYPE svg PUBLIC "-//W3C//DTD SVG 1.1//EN" "http://www.w3.org/Graphics/SVG/1.1/DTD/svg11.dtd">
<!-- Generated by Microsoft Visio, SVG Export Cognitive Services Enterprise Bot.svg Page-1 -->
<svg xmlns="http://www.w3.org/2000/svg" xmlns:xlink="http://www.w3.org/1999/xlink" xmlns:ev="http://www.w3.org/2001/xml-events"
		width="0.661417in" height="1.33858in" viewBox="0 0 47.622 96.378" xml:space="preserve" color-interpolation-filters="sRGB"
		class="st3">
	<style type="text/css">
	<![CDATA[
		.st1 {fill:#0078d4;stroke:none;stroke-linecap:butt;stroke-width:0.75}
		.st2 {fill:#50e6ff;stroke:none;stroke-linecap:butt;stroke-width:0.75}
		.st3 {fill:none;fill-rule:evenodd;font-size:12px;overflow:visible;stroke-linecap:square;stroke-miterlimit:3}
	]]>
	</style>

	<g>
		<title>Page-1</title>
		<g id="group18152-1" transform="translate(3.9685,-34.0157)">
			<title>Cognitive Services Enterprise Bot.18152</title>
			<g id="shape18153-2">
				<title>Sheet.18153</title>
				<path d="M39.69 55.14 L35.89 55.14 L35.89 65.87 L3.86 65.87 L3.86 55.14 L0 55.14 L0 96.38 L39.69 96.38 L39.69 55.14
							 Z" class="st1"/>
			</g>
			<g id="shape18154-4" transform="translate(3.66128,-4.45445)">
				<title>Sheet.18154</title>
				<path d="M32.36 74.85 L0 74.85 L0 96.38 L32.3 96.38 L32.3 74.85 L32.36 74.85 Z" class="st2"/>
			</g>
			<g id="shape18155-6" transform="translate(5.03416,-12.7559)">
				<title>Sheet.18155</title>
				<path d="M1.5 96.38 L0 95.37 L0.13 95.16 C1.37 93.27 3.53 92.13 5.82 92.13 C8.17 92.13 10.33 93.27 11.51 95.16 L11.64
							 95.37 L10.07 96.31 L9.94 96.11 C9.09 94.76 7.52 93.88 5.75 93.88 C4.05 93.88 2.48 94.76 1.57 96.11 L1.5
							 96.38 Z" class="st1"/>
			</g>
			<g id="shape18156-8" transform="translate(23.0788,-12.7559)">
				<title>Sheet.18156</title>
				<path d="M11.51 95.16 C10.33 93.27 8.17 92.13 5.82 92.13 C3.47 92.13 1.37 93.27 0.13 95.16 L0 95.37 L1.5 96.38 L1.63
							 96.18 C2.48 94.83 4.12 93.95 5.82 93.95 C7.58 93.95 9.15 94.83 10 96.18 L10.13 96.38 L11.7 95.43 L11.51
							 95.16 Z" class="st1"/>
			</g>
			<g id="shape18157-10" transform="translate(26.1515,-33.0709)">
				<title>Sheet.18157</title>
				<path d="M4.9 81.19 L4.9 90.44 C4.71 90.44 4.45 90.51 4.32 90.71 C4.18 90.84 4.05 91.11 4.05 91.32 C4.05 91.52 4.12
							 91.79 4.32 91.92 C4.45 92.06 4.71 92.19 4.9 92.19 L4.9 96.38 L0 96.38 L0 81.19 L4.9 81.19 Z"
						class="st2"/>
			</g>
			<g id="shape18158-12" transform="translate(19.6137,-48.2565)">
				<title>Sheet.18158</title>
				<path d="M3.27 94.69 L0 94.69 L0 96.38 L3.27 96.38 L3.27 94.69 Z" class="st1"/>
			</g>
			<g id="shape18159-14" transform="translate(9.80687,-43.1946)">
				<title>Sheet.18159</title>
				<path d="M4.9 94.69 L0 94.69 L0 96.38 L4.9 96.38 L4.9 94.69 Z" class="st1"/>
			</g>
			<g id="shape18160-16" transform="translate(9.80687,-39.82)">
				<title>Sheet.18160</title>
				<path d="M4.9 94.69 L0 94.69 L0 96.38 L4.9 96.38 L4.9 94.69 Z" class="st1"/>
			</g>
			<g id="shape18161-18" transform="translate(9.80687,-36.4455)">
				<title>Sheet.18161</title>
				<path d="M4.9 94.69 L0 94.69 L0 96.38 L4.9 96.38 L4.9 94.69 Z" class="st1"/>
			</g>
			<g id="shape18162-20" transform="translate(6.53787,-33.0708)">
				<title>Sheet.18162</title>
				<path d="M4.9 72.76 L4.9 81.19 L0 81.19 L0 96.38 L19.61 96.38 L19.61 72.76 L4.9 72.76 ZM9.81 94.69 L1.63 94.69 L1.63
							 82.88 L9.81 82.88 L9.81 94.69 ZM11.44 79.51 L8.17 79.51 L8.17 76.13 L11.44 76.13 L11.44 79.51 ZM16.34
							 94.69 L13.08 94.69 L13.08 91.32 L16.34 91.32 L16.34 94.69 ZM16.34 89.63 L13.08 89.63 L13.08 86.25 L16.34
							 86.25 L16.34 89.63 ZM16.34 84.57 L13.08 84.57 L13.08 81.19 L16.34 81.19 L16.34 84.57 ZM16.34 79.51 L13.08
							 79.51 L13.08 76.13 L16.34 76.13 L16.34 79.51 Z" class="st1"/>
			</g>
			<g id="shape18163-22" transform="translate(28.5053,-33.0034)">
				<title>Sheet.18163</title>
				<path d="M4.97 91.25 C4.97 90.78 4.84 90.3 4.64 89.9 C4.45 89.49 4.05 89.16 3.66 88.95 C3.27 88.75 2.81 88.62 2.35
							 88.68 C1.9 88.68 1.5 88.89 1.11 89.16 C0.72 89.43 0.46 89.76 0.26 90.24 C0.07 90.64 0 91.11 0.07 91.59
							 C0.13 92.06 0.33 92.46 0.59 92.87 C0.85 93.21 1.24 93.48 1.7 93.68 L1.7 96.38 L3.33 96.38 L3.33 93.68
							 C3.79 93.48 4.25 93.21 4.51 92.73 C4.84 92.26 4.97 91.72 4.97 91.25 ZM2.55 92.06 C2.42 92.06 2.22 91.99
							 2.09 91.92 C1.96 91.86 1.83 91.72 1.77 91.52 C1.7 91.38 1.7 91.18 1.7 91.05 C1.7 90.91 1.83 90.71 1.9
							 90.64 C2.03 90.51 2.16 90.44 2.29 90.44 C2.42 90.44 2.62 90.44 2.75 90.51 C2.88 90.57 3.01 90.64 3.14
							 90.84 C3.2 90.98 3.27 91.11 3.27 91.32 C3.27 91.52 3.2 91.79 3.01 91.92 C2.94 91.99 2.75 92.06 2.55
							 92.06 Z" class="st1"/>
			</g>
		</g>
	</g>
</svg>
